X:88
T:Cabinet Of Love,The. WM.087
M:2/4
L:1/8
Q:1/2=90
S:Wm.Mittell’s MS, New Romney,Kent,1799
R:.Country Dance
O:England
A:Kent
Z:vmp.Chris Partington
W:Foot it across and turn the same back again,cross over and half figure
W:a right and left at the top
K:G
“_key may be Dmaj in MS,unclear”BGGB|cAAc|BGGB|dBg2|BGGB|cAAc|BGAF|G2G2:|!
|:gdBG|AFED|gdBG|dBg2|gdBG|AFED|(G/A/B/c/) dB|G2G,2:|

